X:33
T:Pernard Brown's Buffet
S:American Veteran Fifer #33
M:6/8
L:1/8
Q:1/8=300
K:D 
%%MIDI program 72
%%MIDI transpose 8
%%MIDI ratio 3 1
|: ((3A/B/c/) | d2 f c2 e | dfd Aef | gag fdf | efe a3 |
d2 f c2 e | dfd Aef | gag fdf | eaf d2 :|
|: f | g3- gag | fzg fzf | efe aba | faf dBA |
g3- gag | fzg fzf | eaf gec | dfA d2 :|


